X:1
T:Title
%%score 1 2
L:1/8
Q:1/4=80
M:3/4
K:F
V:1 treble nm="E.Piano 2, Instrument 1"
V:2 treble nm="Nylon Gtr., Instrument 5"
V:1
 AG | F2 FE DE | F2 C2 FE | D2 E2 F2 | C4 AG | F2 FG AB | c2 A2 FG | A2 AB GA |[M:2/4] F4 |] %9
w: Generated~by~NoteWorthy~Composer *|||||||||
V:2
 z2 | [FAc]4 [Bdf]2 | [FAc]6 | [G,B,DFG]6 | [ceg]4 z2 | [FAc]4 [DFAd]2 | [A,CEA]4 [Bdf]2 | %7
 [FAc]4 [CEGBc]2 |[M:2/4] [FAc]4 |] %9

